X: 28417
T: Muliñeira De Santalla D'Ozcos
R: jig
M: 6/8
K: Dmajor
FG|:AFG FED|F2EA,3|EFG EFG|A4FG|
AFG FED|F2EA,3|EFG ECE|1 D4 FG:|2 D4fg||
|:afg fed|f2ea,3|efg efg|
a4fg|afg fed|f2ea,3|efg ece|1 d4 fg:|2 d3 DFA||
|:dce gce|d2 A BcB|AGF EDE|G2F DFA|
dce gce|d2 A dcB|1 ABA GFE|D3 DFA:|2 ABA GEC|D4|

